data/tilesets/flags/sumeria.svg

<?xml version="1.0" encoding="UTF-8" standalone="no"?>
<svg
   xmlns:dc="http://purl.org/dc/elements/1.1/"
   xmlns:cc="http://creativecommons.org/ns#"
   xmlns:rdf="http://www.w3.org/1999/02/22-rdf-syntax-ns#"
   xmlns:svg="http://www.w3.org/2000/svg"
   xmlns="http://www.w3.org/2000/svg"
   xmlns:sodipodi="http://sodipodi.sourceforge.net/DTD/sodipodi-0.dtd"
   xmlns:inkscape="http://www.inkscape.org/namespaces/inkscape"
   width="375"
   height="250"
   id="svg1"
   sodipodi:version="0.32"
   inkscape:version="1.0.2 (e86c870879, 2021-01-15)"
   sodipodi:docname="sumeria.svg"
   inkscape:export-filename="/home/jdorje/sumeria.png"
   inkscape:export-xdpi="72.000000"
   inkscape:export-ydpi="72.000000"
   version="1.1">
  <defs
     id="defs11">
    <inkscape:perspective
       sodipodi:type="inkscape:persp3d"
       inkscape:vp_x="0 : 133.33333 : 1"
       inkscape:vp_y="0 : 1066.6667 : 0"
       inkscape:vp_z="400 : 133.33333 : 1"
       inkscape:persp3d-origin="200 : 88.888889 : 1"
       id="perspective12" />
  </defs>
  <sodipodi:namedview
     id="base"
     pagecolor="#ffffff"
     bordercolor="#666666"
     borderopacity="1.0"
     inkscape:pageopacity="0.0"
     inkscape:pageshadow="2"
     inkscape:zoom="1.2173913"
     inkscape:cx="177.14101"
     inkscape:cy="102.79362"
     inkscape:window-width="764"
     inkscape:window-height="579"
     inkscape:window-x="4"
     inkscape:window-y="27"
     inkscape:current-layer="svg1"
     showgrid="false"
     inkscape:window-maximized="0"
     inkscape:document-rotation="0" />
  <rect
     style="fill:#32cbfe;fill-opacity:1;fill-rule:evenodd;stroke:#000000;stroke-width:0;stroke-linecap:butt;stroke-linejoin:miter;stroke-miterlimit:4;stroke-opacity:1"
     id="rect1554"
     width="375"
     height="250"
     x="5e-07"
     y="5e-07" />
  <path
     style="fill:#a0a0a0;stroke:none"
     d="m 10,2.0000005 1,1 z"
     id="path4" />
  <path
     style="fill:#a0a0a0;stroke:none"
     d="m 16,2.0000005 1,1 -1,-1 m -7.9999995,1 1,1 -1,-1 m 9.9999995,0 1,1 z"
     id="path6" />
  <path
     style="fill:#a0a0a0;stroke:none"
     d="m 5.0000005,6.0000005 1,1 -1,-1 m 15.9999995,0 1,1 -1,-1 m -16.9999995,2 1,1 -1,-1 m 17.9999995,0 1,1 z"
     id="path8" />
  <metadata
     id="metadata12">
    <rdf:RDF>
      <cc:Work
         rdf:about="">
        <dc:format>image/svg+xml</dc:format>
        <dc:type
           rdf:resource="http://purl.org/dc/dcmitype/StillImage" />
      </cc:Work>
    </rdf:RDF>
  </metadata>
  <ellipse
     style="fill:#ee1212;fill-opacity:1;fill-rule:evenodd;stroke:#000000;stroke-width:0;stroke-linecap:butt;stroke-linejoin:miter;stroke-miterlimit:4;stroke-opacity:1"
     id="path2181"
     cx="187.5"
     cy="130.98213"
     rx="125"
     ry="119.01787" />
  <path
     style="fill:#ffb012;fill-opacity:1;fill-rule:evenodd;stroke:#000000;stroke-width:0;stroke-linecap:butt;stroke-linejoin:miter;stroke-miterlimit:4;stroke-opacity:1"
     d="m 112.5,90.71875 v 39.8125 h -25 v 39.8125 h -25 v 39.84375 h -25 V 250 h 25 250 25 v -39.8125 h -25 v -39.84375 h -25 v -39.8125 h -25 v -39.8125 z"
     id="rect4049" />
</svg>

<?xml version="1.0" encoding="UTF-8" standalone="no"?>
<svg
   xmlns:dc="http://purl.org/dc/elements/1.1/"
   xmlns:cc="http://creativecommons.org/ns#"
   xmlns:rdf="http://www.w3.org/1999/02/22-rdf-syntax-ns#"
   xmlns:svg="http://www.w3.org/2000/svg"
   xmlns="http://www.w3.org/2000/svg"
   xmlns:sodipodi="http://sodipodi.sourceforge.net/DTD/sodipodi-0.dtd"
   xmlns:inkscape="http://www.inkscape.org/namespaces/inkscape"
   width="300.00000pt"
   height="250.00000px"
   id="svg1"
   sodipodi:version="0.32"
   inkscape:version="0.47 r22583"
   sodipodi:docname="sumeria.svg"
   inkscape:export-filename="/home/jdorje/sumeria.png"
   inkscape:export-xdpi="72.000000"
   inkscape:export-ydpi="72.000000"
   version="1.1">
  <defs
     id="defs11">
    <inkscape:perspective
       sodipodi:type="inkscape:persp3d"
       inkscape:vp_x="0 : 125 : 1"
       inkscape:vp_y="0 : 1000 : 0"
       inkscape:vp_z="375 : 125 : 1"
       inkscape:persp3d-origin="187.5 : 83.333333 : 1"
       id="perspective12" />
  </defs>
  <sodipodi:namedview
     id="base"
     pagecolor="#ffffff"
     bordercolor="#666666"
     borderopacity="1.0"
     inkscape:pageopacity="0.0"
     inkscape:pageshadow="2"
     inkscape:zoom="1.2173913"
     inkscape:cx="177.14101"
     inkscape:cy="102.79362"
     inkscape:window-width="753"
     inkscape:window-height="579"
     inkscape:window-x="4"
     inkscape:window-y="26"
     inkscape:current-layer="svg1"
     showgrid="false"
     inkscape:window-maximized="0" />
  <rect
     style="fill:#32cbfe;fill-opacity:1.0000000;fill-rule:evenodd;stroke:#000000;stroke-width:0.0000000;stroke-linecap:butt;stroke-linejoin:miter;stroke-miterlimit:4.0000000;stroke-opacity:1.0000000"
     id="rect1554"
     width="375.00000"
     height="250.00000"
     x="0.0000000"
     y="-6.2172489e-15" />
  <path
     style="fill:#a0a0a0; stroke:none;"
     d="M10 2L11 3L10 2z"
     id="path4" />
  <path
     style="fill:#a0a0a0; stroke:none;"
     d="M16 2L17 3L16 2M8 3L9 4L8 3M18 3L19 4L18 3z"
     id="path6" />
  <path
     style="fill:#a0a0a0; stroke:none;"
     d="M5 6L6 7L5 6M21 6L22 7L21 6M4 8L5 9L4 8M22 8L23 9L22 8z"
     id="path8" />
  <metadata
     id="metadata12">
    <rdf:RDF>
      <cc:Work
         rdf:about="">
        <dc:format>image/svg+xml</dc:format>
        <dc:type
           rdf:resource="http://purl.org/dc/dcmitype/StillImage" />
      </cc:Work>
    </rdf:RDF>
  </metadata>
  <path
     sodipodi:type="arc"
     style="fill:#ee1212;fill-opacity:1;fill-rule:evenodd;stroke:#000000;stroke-width:0;stroke-linecap:butt;stroke-linejoin:miter;stroke-miterlimit:4;stroke-opacity:1"
     id="path2181"
     sodipodi:cx="40.210842"
     sodipodi:cy="33.584339"
     sodipodi:rx="18.072289"
     sodipodi:ry="18.524096"
     d="m 58.283131,33.584339 a 18.072289,18.524096 0 1 1 -36.144577,0 18.072289,18.524096 0 1 1 36.144577,0 z"
     transform="matrix(6.916667,0,0,6.4250298,-90.625,-84.798246)" />
  <path
     style="fill:#ffb012;fill-opacity:1.0000000;fill-rule:evenodd;stroke:#000000;stroke-width:0.0000000;stroke-linecap:butt;stroke-linejoin:miter;stroke-miterlimit:4.0000000;stroke-opacity:1.0000000"
     d="M 112.50000 90.718750 L 112.50000 130.53125 L 87.500000 130.53125 L 87.500000 170.34375 L 62.500000 170.34375 L 62.500000 210.18750 L 37.500000 210.18750 L 37.500000 250.00000 L 62.500000 250.00000 L 312.50000 250.00000 L 337.50000 250.00000 L 337.50000 210.18750 L 312.50000 210.18750 L 312.50000 170.34375 L 287.50000 170.34375 L 287.50000 130.53125 L 262.50000 130.53125 L 262.50000 90.718750 L 112.50000 90.718750 z "
     id="rect4049" />
</svg>
